X: 68
T: Out on the Ocean
R:Jig
M:6/8
L:1/8
K:G
"G"D2B BAG|BdB "D"A2B|"G"GED G2A|B2B "C"AGE|
"G"D2B BAG|BdB "D"A2B|"G"GED G2A|1 BGF G3:|2 BGF GBd||
"Em"efe edB|efe edB|"D"ded def|"C"gfe "D"dBA|
"G"G2A B2d|"C"ege "D"dBA|"G"GED G2A|1 BGF GBd:|2 BGF G3|]


